storage/app/icons/phosphoricons/fill/arrow-square-in-fill.svg

<svg xmlns="http://www.w3.org/2000/svg" fill="currentColor" viewBox="0 0 256 256"><path d="M128 136v64a8 8 0 0 1-13.66 5.66L88 179.31l-42.34 42.35a8 8 0 0 1-11.32-11.32L76.69 168l-26.35-26.34A8 8 0 0 1 56 128h64a8 8 0 0 1 8 8m80-104H80a16 16 0 0 0-16 16v48a8 8 0 0 0 16 0V48h128v128h-48a8 8 0 0 0 0 16h48a16 16 0 0 0 16-16V48a16 16 0 0 0-16-16"/></svg>

<svg xmlns="http://www.w3.org/2000/svg" viewBox="0 0 256 256" fill="currentColor"><path d="M128,136v64a8,8,0,0,1-13.66,5.66L88,179.31,45.66,221.66a8,8,0,0,1-11.32-11.32L76.69,168,50.34,141.66A8,8,0,0,1,56,128h64A8,8,0,0,1,128,136ZM208,32H80A16,16,0,0,0,64,48V96a8,8,0,0,0,16,0V48H208V176H160a8,8,0,0,0,0,16h48a16,16,0,0,0,16-16V48A16,16,0,0,0,208,32Z"/></svg>
